X: 122
T: Pollonesse #122
M: 3/4
L: 1/16
R: Pollonesse
K: D
Q: 110
D2D2 E2EG F2F2| A2A2 B2Bd c2c2|d2ef g2ag f2ed|1cdcB ABAG F2E2:|2c2Bc d4D4|]
|:DFAF DFAF DFAF| G2G2 E2EG F2F2|DFAF DFAF DFAF| G2G2 E2EG F2F2|
|d2ef g2ag f2ed|c2Bc d4D4:|

